icons/h-2.svg

<svg viewBox="0 0 24 24" fill="currentColor" xmlns="http://www.w3.org/2000/svg">
    <path d="M4 4V11H11V4H13V20H11V13H4V20H2V4H4ZM18.5 8C20.5711 8 22.25 9.67893 22.25 11.75C22.25 12.6074 21.9623 13.3976 21.4781 14.0292L21.3302 14.2102L18.0343 18H22V20H15L14.9993 18.444L19.8207 12.8981C20.0881 12.5908 20.25 12.1893 20.25 11.75C20.25 10.7835 19.4665 10 18.5 10C17.5818 10 16.8288 10.7071 16.7558 11.6065L16.75 11.75H14.75C14.75 9.67893 16.4289 8 18.5 8Z"/>
</svg>

<svg xmlns="http://www.w3.org/2000/svg" viewBox="0 0 24 24">
    <g>
        <path fill="none" d="M0 0H24V24H0z"/>
        <path d="M4 4v7h7V4h2v16h-2v-7H4v7H2V4h2zm14.5 4c2.071 0 3.75 1.679 3.75 3.75 0 .857-.288 1.648-.772 2.28l-.148.18L18.034 18H22v2h-7v-1.556l4.82-5.546c.268-.307.43-.709.43-1.148 0-.966-.784-1.75-1.75-1.75-.918 0-1.671.707-1.744 1.606l-.006.144h-2C14.75 9.679 16.429 8 18.5 8z"/>
    </g>
</svg>
